src/22/mimetypes/application-x-rpm.svg

<?xml version="1.0" encoding="UTF-8" standalone="no"?>

<!-- Created with Inkscape (http://www.inkscape.org/) -->
<svg width="22" version="1.1" xmlns="http://www.w3.org/2000/svg" height="22" xmlns:inkscape="http://www.inkscape.org/namespaces/inkscape">
 <defs id="defs3871"/>
 <metadata id="metadata3874"/>
 <g inkscape:label="Capa 1" inkscape:groupmode="layer" id="layer1" transform="matrix(1 0 0 1 -326 -534.3622)">
  <path style="fill:#cf000f;stroke-width:2" id="path6105" d="M 11 3 A 8 8 0 0 0 3 11 A 8 8 0 0 0 11 19 A 8 8 0 0 0 19 11 A 8 8 0 0 0 11 3 z M 11 4 A 7 7 0 0 1 18 11 A 7 7 0 0 1 11 18 A 7 7 0 0 1 4 11 A 7 7 0 0 1 11 4 z " transform="matrix(1 0 0 1 326 534.3622)"/>
  <path style="fill:#cf000f;stroke-width:2" id="path6110" d="M 11 6 A 5 5 0 0 0 7.6816406 7.2675781 L 8.390625 7.9765625 A 4 4 0 0 1 11 7 A 4 4 0 0 1 15 11 L 16 11 A 5 5 0 0 0 11 6 z M 6.4746094 8.8886719 A 5 5 0 0 0 6 11 L 7 11 A 4 4 0 0 1 7.2382812 9.6523438 L 6.4746094 8.8886719 z " transform="matrix(1 0 0 1 326 534.3622)"/>
  <path inkscape:transform-center-x="-0.12411808" inkscape:transform-center-y="-1.943762" inkscape:connector-curvature="0" style="fill:#cf000f;stroke-width:2" id="path6123" d="m 338.34439,542.52848 -2.14637,4.97663 c -0.1228,0.13979 -0.21208,0.31019 -0.2592,0.49473 -0.007,0.0298 -0.0135,0.0597 -0.0185,0.09 l -0.007,0.0141 0.006,0.001 c -0.09,0.56146 0.22081,1.08547 0.71863,1.21161 0.49878,0.12537 1.0215,-0.18951 1.20783,-0.72764 l 0.007,0.002 10e-4,-0.0298 c 0.008,-0.0247 0.0159,-0.0497 0.0228,-0.0748 0.0449,-0.18195 0.0475,-0.37119 0.007,-0.54997 z"/>
 </g>
</svg>

<svg width="22" xmlns="http://www.w3.org/2000/svg" height="22"><g fill="#cf000f" stroke-width="2"><path d="M11 3a8 8 0 0 0-8 8 8 8 0 0 0 8 8 8 8 0 0 0 8-8 8 8 0 0 0-8-8zm0 1a7 7 0 0 1 7 7 7 7 0 0 1-7 7 7 7 0 0 1-7-7 7 7 0 0 1 7-7z"/><path d="M11 6a5 5 0 0 0-3.318 1.268l.709.709A4 4 0 0 1 11 7a4 4 0 0 1 4 4h1a5 5 0 0 0-5-5zM6.475 8.889A5 5 0 0 0 6 11h1a4 4 0 0 1 .238-1.348l-.763-.763z"/><path d="M12.344 8.166l-2.146 4.977a1.2 1.2 0 0 0-.278.585l-.007.014h.006c-.09.562.221 1.086.719 1.212.499.126 1.021-.19 1.208-.727l.007.002v-.03l.024-.075c.044-.182.047-.371.007-.55z"/></g></svg>
